svgs/regular/jug-detergent.svg

<svg xmlns="http://www.w3.org/2000/svg" viewBox="0 0 384 512"><!--! Font Awesome Pro 6.6.0 by @fontawesome - https://fontawesome.com License - https://fontawesome.com/license (Commercial License) Copyright 2024 Fonticons, Inc. --><path d="M120 0C106.7 0 96 10.7 96 24l0 24-8 0C74.7 48 64 58.7 64 72s10.7 24 24 24l144 0c13.3 0 24-10.7 24-24s-10.7-24-24-24l-8 0 0-24c0-13.3-10.7-24-24-24L120 0zM256 176c44.2 0 80 35.8 80 80l0 192c0 8.8-7.2 16-16 16L64 464c-8.8 0-16-7.2-16-16l0-192c0-44.2 35.8-80 80-80l128 0zM128 128C57.3 128 0 185.3 0 256L0 448c0 35.3 28.7 64 64 64l256 0c35.3 0 64-28.7 64-64l0-192c0-70.7-57.3-128-128-128l-128 0zm128 96c-17.7 0-32 14.3-32 32l0 96c0 17.7 14.3 32 32 32s32-14.3 32-32l0-96c0-17.7-14.3-32-32-32z"/></svg>

<svg xmlns="http://www.w3.org/2000/svg" viewBox="0 0 384 512"><!--! Font Awesome Pro 6.4.0 by @fontawesome - https://fontawesome.com License - https://fontawesome.com/license (Commercial License) Copyright 2023 Fonticons, Inc. --><path d="M120 0C106.7 0 96 10.7 96 24V48H88C74.7 48 64 58.7 64 72s10.7 24 24 24H232c13.3 0 24-10.7 24-24s-10.7-24-24-24h-8V24c0-13.3-10.7-24-24-24H120zM256 176c44.2 0 80 35.8 80 80V448c0 8.8-7.2 16-16 16H64c-8.8 0-16-7.2-16-16V256c0-44.2 35.8-80 80-80H256zM128 128C57.3 128 0 185.3 0 256V448c0 35.3 28.7 64 64 64H320c35.3 0 64-28.7 64-64V256c0-70.7-57.3-128-128-128H128zm128 96c-17.7 0-32 14.3-32 32v96c0 17.7 14.3 32 32 32s32-14.3 32-32V256c0-17.7-14.3-32-32-32z"/></svg>
